src/assets/images/mobile/Dashed.svg

<svg width="165" height="68" viewBox="0 0 165 68" fill="none" xmlns="http://www.w3.org/2000/svg">
<path d="M2 25.2746C12.3008 78.2652 49.0678 41.2631 58.146 35.7813C67.2243 30.2996 76.4586 26.6041 84.9269 27.1018C102.107 28.1117 114.445 52.5081 101.268 63.6471C84.6607 77.6851 56.6691 44.4173 62.6852 23.4473C68.6721 2.5791 100.32 -7.14906 114.431 9.28601C124.746 21.2998 126.233 40.8063 118.063 40.8063C108.415 40.8063 105.208 33.4924 110.346 25.2746C115.219 17.4797 123.377 18.023 130.772 23.4473C139.224 29.6467 146.34 49.4432 137.127 44.4608C130.91 41.0988 131.68 36.2382 137.127 30.2995C142.574 24.3609 163 38.979 163 38.979" stroke="white" stroke-opacity="0.87" stroke-width="2" stroke-linecap="square"/>
</svg>

<svg width="165" height="68" fill="none" xmlns="http://www.w3.org/2000/svg"><path d="M2 25.275c10.3 52.99 47.068 15.988 56.146 10.506 9.078-5.481 18.313-9.177 26.78-8.68 17.181 1.01 29.519 25.407 16.342 36.546-16.607 14.038-44.599-19.23-38.583-40.2C68.672 2.58 100.32-7.149 114.431 9.286c10.315 12.014 11.802 31.52 3.632 31.52-9.648 0-12.855-7.314-7.717-15.531 4.873-7.795 13.031-7.252 20.426-1.828 8.452 6.2 15.568 25.996 6.355 21.014-6.217-3.362-5.447-8.223 0-14.162C142.574 24.361 163 38.98 163 38.98" stroke="#fff" stroke-opacity=".87" stroke-width="2" stroke-linecap="square"/></svg>
